dist/intermediate-svg/sale.svg

<?xml version="1.0" encoding="utf-8"?><svg width="24" height="23.23" fill="none" xmlns="http://www.w3.org/2000/svg" viewBox="0 0 31 30"><circle cx="15.5" cy="15" r="14.5" stroke="#BABABA"/><path d="M13.0333 11.9852H10.6333L13.0333 8.45179C13.3667 7.98512 13.9667 7.85185 14.4333 8.18518C14.9 8.51852 15.0333 9.11842 14.7 9.58509L13.0333 11.9852ZM17.9667 11.9852H20.3667L17.9667 8.45179C17.6333 7.98512 17.0333 7.85185 16.5667 8.18518C16.1 8.51852 15.9667 9.11842 16.3 9.58509L17.9667 11.9852ZM23.5 13.9852V15.3185C23.5 15.7185 23.2333 15.9852 22.8333 15.9852H21.8333L21.3 21.4518C21.2333 22.1185 20.6333 22.6518 19.9667 22.6518H11.0333C10.3667 22.6518 9.76667 22.1185 9.7 21.4518L9.16667 15.9852H8.16667C7.76667 15.9852 7.5 15.7185 7.5 15.3185V13.9852C7.5 13.5852 7.76667 13.3185 8.16667 13.3185H22.8333C23.2333 13.3185 23.5 13.5852 23.5 13.9852ZM12.8333 19.3185H11.5V20.6518H12.8333V19.3185ZM12.8333 15.9852H11.5V17.3185H12.8333V15.9852ZM16.1667 19.3185H14.8333V20.6518H16.1667V19.3185ZM16.1667 15.9852H14.8333V17.3185H16.1667V15.9852ZM19.5 19.3185H18.1667V20.6518H19.5V19.3185ZM19.5 15.9852H18.1667V17.3185H19.5V15.9852Z" fill="#333"/></svg>

<?xml version="1.0" encoding="utf-8"?><svg width="24" height="23.23" fill="none" xmlns="http://www.w3.org/2000/svg" viewBox="0 0 31 30"><circle cx="15.5" cy="15" r="14.5" stroke="#BABABA"/><path d="M13.033 11.985h-2.4l2.4-3.533c.334-.467.934-.6 1.4-.267.467.334.6.933.267 1.4l-1.667 2.4zm4.934 0h2.4l-2.4-3.533c-.334-.467-.934-.6-1.4-.267-.467.334-.6.933-.267 1.4l1.667 2.4zm5.533 2v1.334c0 .4-.267.666-.667.666h-1l-.533 5.467c-.067.666-.667 1.2-1.333 1.2h-8.934c-.666 0-1.266-.534-1.333-1.2l-.533-5.467h-1c-.4 0-.667-.266-.667-.666v-1.334c0-.4.267-.666.667-.666h14.666c.4 0 .667.266.667.666zM12.833 19.32H11.5v1.333h1.333v-1.334zm0-3.334H11.5v1.334h1.333v-1.334zm3.334 3.334h-1.334v1.333h1.334v-1.334zm0-3.334h-1.334v1.334h1.334v-1.334zM19.5 19.32h-1.333v1.333H19.5v-1.334zm0-3.334h-1.333v1.334H19.5v-1.334z" fill="#333"/></svg>
